T: Casey's Favourite
M: 4/4
L: 1/8
K: Gmaj
BGGA Bc d2 | e2 DB A2 dc | BGGA BcdB | e2 dB G2 :|bgaf gfed | eaa^g a2 =ga | bgaf gfed | e^def g2 ga |bgag bgag | eaa^g a2 =ga | bc'ba gfed | eaaf ge |]
